packages/ffe-icons/icons/open/400/sm/shelf_auto_hide.svg

<svg xmlns="http://www.w3.org/2000/svg" height="20" viewBox="0 -960 960 960" width="20"><path d="M216-144q-29.7 0-50.85-21.15Q144-186.3 144-216v-528q0-29.7 21.15-50.85Q186.3-816 216-816h528q29.7 0 50.85 21.15Q816-773.7 816-744v528q0 29.7-21.15 50.85Q773.7-144 744-144H216Zm0-72h528v-528H216v528Zm0-528v528-528Zm263.79 456q15.21 0 25.71-10.29t10.5-25.5q0-15.21-10.29-25.71t-25.5-10.5q-15.21 0-25.71 10.29t-10.5 25.5q0 15.21 10.29 25.71t25.5 10.5Zm-156 0q15.21 0 25.71-10.29t10.5-25.5q0-15.21-10.29-25.71t-25.5-10.5q-15.21 0-25.71 10.29t-10.5 25.5q0 15.21 10.29 25.71t25.5 10.5Zm312 0q15.21 0 25.71-10.29t10.5-25.5q0-15.21-10.29-25.71t-25.5-10.5q-15.21 0-25.71 10.29t-10.5 25.5q0 15.21 10.29 25.71t25.5 10.5Z"/></svg>

<svg xmlns="http://www.w3.org/2000/svg" height="20" viewBox="0 -960 960 960" width="20"><path d="M216-144q-29.7 0-50.85-21.15Q144-186.3 144-216v-528q0-29.7 21.15-50.85Q186.3-816 216-816h528q29.7 0 50.85 21.15Q816-773.7 816-744v528q0 29.7-21.15 50.85Q773.7-144 744-144H216Zm0-72h528v-528H216v528Zm0-528v528-528Zm263.789 456Q495-288 505.5-298.289q10.5-10.29 10.5-25.5Q516-339 505.711-349.5q-10.29-10.5-25.5-10.5Q465-360 454.5-349.711q-10.5 10.29-10.5 25.5Q444-309 454.289-298.5q10.29 10.5 25.5 10.5Zm-156 0Q339-288 349.5-298.289q10.5-10.29 10.5-25.5Q360-339 349.711-349.5q-10.29-10.5-25.5-10.5Q309-360 298.5-349.711q-10.5 10.29-10.5 25.5Q288-309 298.289-298.5q10.29 10.5 25.5 10.5Zm312 0Q651-288 661.5-298.289q10.5-10.29 10.5-25.5Q672-339 661.711-349.5q-10.29-10.5-25.5-10.5Q621-360 610.5-349.711q-10.5 10.29-10.5 25.5Q600-309 610.289-298.5q10.29 10.5 25.5 10.5Z"/></svg>
